public/app/img/box.svg

<svg xmlns="http://www.w3.org/2000/svg" width="323.783" height="393.479" viewBox="0 0 323.783 393.479"><path fill="#F86E5B" enable-background="new" d="M.3 92.977l160.443-92.689 2.051.033 159.812 92.294-.037.994-160.033 92.392-1.553-.001-160.683-93.023zM323.759 101.031l-.244-1.559-156.474 90.658-1.515 2.859.26 200.478 156.591-90.756 1.363-2.343.019-199.337zM158.275 193.648l-2.295-3.855-154.991-89.872-.989-.179v200.638l1.673 2.646 156.357 90.453.245-199.831z"/></svg>

<?xml version="1.0" encoding="utf-8"?>
<!-- Generator: Adobe Illustrator 16.0.0, SVG Export Plug-In . SVG Version: 6.00 Build 0)  -->
<!DOCTYPE svg PUBLIC "-//W3C//DTD SVG 1.1//EN" "http://www.w3.org/Graphics/SVG/1.1/DTD/svg11.dtd">
<svg version="1.1" id="Layer_1" xmlns="http://www.w3.org/2000/svg" xmlns:xlink="http://www.w3.org/1999/xlink" x="0px" y="0px"
	 width="323.783px" height="393.479px" viewBox="0 0 323.783 393.479" enable-background="new 0 0 323.783 393.479"
	 xml:space="preserve">
<path fill="#F86E5B" enable-background="new    " d="M0.3,92.977L160.743,0.288l2.051,0.033l159.812,92.294l-0.037,0.994
	l-160.033,92.392L160.983,186L0.3,92.977L0.3,92.977z"/>
<path fill="#F86E5B" enable-background="new    " d="M323.759,101.031l-0.244-1.559l-156.474,90.658l-1.515,2.859l0.26,200.478
	l156.591-90.756l1.363-2.343L323.759,101.031L323.759,101.031z"/>
<path fill="#F86E5B" enable-background="new    " d="M158.275,193.648l-2.295-3.855L0.989,99.921L0,99.742V300.38l1.673,2.646
	l156.357,90.453L158.275,193.648L158.275,193.648z"/>
</svg>
